source/img/services/services-nav/contekst-icon.svg

<svg width="33" height="33" viewBox="0 0 33 33" fill="none" xmlns="http://www.w3.org/2000/svg">
<path d="M3.74121 25.4835L7.29353 18.0844C8.68192 17.8223 9.04051 18.0174 9.52274 18.4897L5.86861 25.9879L3.74121 25.4835Z" fill="#AAAAAA"/>
<path d="M16.6159 17.071C19.6963 13.3421 23.4387 14.4364 24.9248 15.4497L26.9514 13.0179C24.3169 10.9237 18.0751 8.47834 14.1841 15.4497L16.6159 17.071Z" fill="#AAAAAA"/>
<path fill-rule="evenodd" clip-rule="evenodd" d="M7.84424 6.33207C9.6178 5.64227 11.6499 5.59939 13.0356 5.76789C13.3805 5.80983 13.6216 6.10331 13.6216 6.43218V25.3904C13.6216 25.7616 13.3203 26.0625 12.9486 26.0625H11.378C11.0063 26.0625 10.705 25.7616 10.705 25.3904V18.8942H10.1971L6.79356 25.691C6.67955 25.9186 6.4465 26.0625 6.19157 26.0625H4.01824C3.50581 26.0625 3.18135 25.5135 3.42907 25.0656L7.16064 18.3188C5.97422 17.6818 4.45794 16.092 4.17014 13.2267L5.06305 13.1373C5.35731 16.0669 7.0586 17.3778 7.93794 17.6877L8.43748 17.8637L4.39842 25.1664H6.05292L9.64247 17.9982H11.6024V25.1664H12.7242V6.63487C11.4432 6.50647 9.68066 6.57942 8.16996 7.16699C6.6005 7.77742 5.33261 8.92414 5.09349 10.9934L4.20202 10.8907C4.4885 8.41155 6.04801 7.0307 7.84424 6.33207ZM10.8638 7.26968C11.2587 7.22879 11.6024 7.53953 11.6024 7.9348V16.5813C11.6024 16.8982 11.3767 17.1878 11.0419 17.2406C10.4099 17.3404 9.56173 17.3642 8.72814 17.004C7.87931 16.6372 7.10257 15.8969 6.58542 14.5773L6.579 14.5609L6.57388 14.5441C6.24461 13.4598 6.05208 11.8005 6.57421 10.3227C6.83824 9.57542 7.28729 8.86984 7.99573 8.3199C8.70386 7.77021 9.64559 7.39582 10.8638 7.26968ZM10.705 8.1915C9.75319 8.32507 9.05598 8.63183 8.54653 9.0273C7.99354 9.45656 7.63624 10.0101 7.42048 10.6208C6.98552 11.8519 7.13536 13.2942 7.42756 14.2672C7.86854 15.3824 8.48542 15.9228 9.08454 16.1817C9.62897 16.4169 10.2042 16.4391 10.705 16.3823V8.1915Z" fill="#0A3D76"/>
<path fill-rule="evenodd" clip-rule="evenodd" d="M14.8844 15.5109C14.7913 15.4407 14.7674 15.3106 14.8324 15.2138C16.2419 13.1142 18.6395 11.7334 21.3595 11.7334C22.9607 11.7334 24.6024 12.3178 25.9088 13.1901C26.0161 13.2618 26.0365 13.4096 25.9558 13.5102L24.6944 15.0813C24.619 15.1752 24.483 15.1925 24.3834 15.1248C23.5214 14.5397 22.4801 14.1975 21.3595 14.1975C19.4592 14.1975 17.7893 15.1807 16.8315 16.6635C16.7586 16.7765 16.6046 16.8078 16.4972 16.7268L14.8844 15.5109ZM14.5081 16.35C14.3936 16.2636 14.2283 16.3053 14.1744 16.4381C13.7897 17.3856 13.6196 18.443 13.6196 19.5737C13.6196 20.5747 13.7376 21.5116 14.0328 22.3636C14.0824 22.5067 14.2593 22.5518 14.3764 22.4555L16.0511 21.0777C16.1192 21.0217 16.1477 20.9312 16.1269 20.8456C16.0277 20.4375 15.9752 20.0114 15.9752 19.5737C15.9752 18.9767 16.0728 18.4018 16.2531 17.8645C16.2846 17.7707 16.2545 17.6666 16.1755 17.6071L14.5081 16.35ZM14.6937 23.3554C14.6092 23.4249 14.5871 23.5454 14.6439 23.6388C16.0215 25.9028 18.5141 27.4139 21.3595 27.4139C23.1932 27.4139 24.8794 26.7868 26.2158 25.7351C26.3289 25.646 26.3238 25.4751 26.2086 25.3888L24.5122 24.1181C24.4355 24.0607 24.331 24.0586 24.2501 24.1101C23.415 24.6417 22.4228 24.9498 21.3595 24.9498C19.248 24.9498 17.4212 23.7361 16.5392 21.9714C16.515 21.923 16.4519 21.909 16.4101 21.9434L14.6937 23.3554ZM26.9317 24.8104C27.0233 24.879 27.1522 24.868 27.2283 24.7826C27.9608 23.9604 28.5225 22.9835 28.858 21.9077C28.8948 21.7896 29.0183 21.7199 29.1376 21.7533L29.5697 21.8741C29.689 21.9075 29.7589 22.0313 29.7224 22.1495C29.2687 23.6196 28.4373 24.9236 27.342 25.9487C25.7777 27.4127 23.6731 28.3099 21.3595 28.3099C17.9287 28.3099 14.9599 26.3382 13.5263 23.4698C12.9288 22.2745 12.7222 20.9441 12.7222 19.5737C12.7222 18.0079 13.025 16.5097 13.7808 15.2052C15.293 12.5951 18.1204 10.8374 21.3595 10.8374C23.5105 10.8374 25.6796 11.7639 27.2077 13.0438C27.3026 13.1233 27.3111 13.265 27.229 13.3577L27.2225 13.365L24.9778 16.1608L24.8305 16.3443C24.7504 16.4441 24.6029 16.4567 24.5069 16.372L24.3305 16.2162C23.5388 15.5173 22.4993 15.0935 21.3595 15.0935C19.6993 15.0935 18.2491 15.9936 17.4726 17.3339C17.3963 17.4656 17.3266 17.6014 17.2638 17.7411C17.0126 18.2999 16.8726 18.9199 16.8726 19.5737C16.8726 20.0728 16.9542 20.552 17.1044 20.9992C17.1706 21.1964 17.2502 21.3874 17.3421 21.5713C18.0781 23.0439 19.6011 24.0538 21.3595 24.0538C22.3978 24.0538 23.3525 23.7022 24.1126 23.1116C24.2217 23.0269 24.3267 22.9372 24.4274 22.843C24.7999 22.4943 25.149 21.9844 25.411 21.4482C25.4813 21.3044 25.3733 21.1417 25.213 21.1417H21.8082H21.2474H21.1352C21.0113 21.1417 20.9108 21.0414 20.9108 20.9177V17.7816V17.5576C20.9108 17.4339 21.0113 17.3336 21.1352 17.3336H21.3595H29.4658H29.6461C29.7514 17.3336 29.8425 17.4067 29.8652 17.5094L29.904 17.6852C30.0383 18.2937 30.1091 18.9257 30.1091 19.5737C30.1091 19.617 30.1087 19.6604 30.1081 19.7036C30.1063 19.8273 30.0016 19.9235 29.8778 19.9186L29.4295 19.9007C29.3057 19.8958 29.2097 19.7916 29.2111 19.6679C29.2115 19.6365 29.2117 19.6051 29.2117 19.5737C29.2117 19.1801 29.1827 18.7935 29.1267 18.4159C29.1107 18.308 29.0171 18.2296 28.9079 18.2296H22.0326C21.9087 18.2296 21.8082 18.3299 21.8082 18.4536V20.0217C21.8082 20.1454 21.9087 20.2457 22.0326 20.2457H26.183H26.4796C26.6284 20.2457 26.736 20.3877 26.6955 20.5306L26.6147 20.8156C26.3798 21.6449 25.8881 22.5824 25.2823 23.2509C25.1901 23.3527 25.2004 23.5135 25.3104 23.5959L26.9317 24.8104Z" fill="#0A3D76"/>
</svg>

<svg width="33" height="33" fill="none" xmlns="http://www.w3.org/2000/svg"><path d="M3.741 25.483l3.553-7.399c1.388-.262 1.747-.067 2.229.406l-3.654 7.498-2.128-.505zm12.875-8.412c3.08-3.729 6.823-2.635 8.309-1.621l2.026-2.432c-2.634-2.094-8.876-4.54-12.767 2.432l2.432 1.621z" fill="#AAA"/><path fill-rule="evenodd" clip-rule="evenodd" d="M7.844 6.332c1.774-.69 3.806-.733 5.192-.564a.667.667 0 01.586.664V25.39a.673.673 0 01-.673.672h-1.571a.673.673 0 01-.673-.672v-6.496h-.508l-3.403 6.797a.673.673 0 01-.602.372H4.018a.672.672 0 01-.589-.997l3.732-6.747c-1.187-.637-2.703-2.227-2.99-5.092l.892-.09c.294 2.93 1.996 4.24 2.875 4.55l.5.177-4.04 7.302h1.655l3.59-7.168h1.96v7.168h1.121V6.635c-1.28-.129-3.043-.056-4.554.532-1.57.61-2.837 1.757-3.077 3.826l-.891-.102c.287-2.48 1.846-3.86 3.642-4.559zm3.02.938a.67.67 0 01.738.665v8.646a.666.666 0 01-.56.66c-.632.1-1.48.123-2.314-.237-.849-.367-1.625-1.107-2.143-2.427l-.006-.016-.005-.017c-.33-1.084-.522-2.744 0-4.221A4.304 4.304 0 017.996 8.32c.708-.55 1.65-.924 2.868-1.05zm-.159.921c-.952.134-1.649.44-2.158.836-.553.43-.91.983-1.127 1.594-.434 1.23-.285 2.673.008 3.646.44 1.115 1.057 1.656 1.657 1.915.544.235 1.12.257 1.62.2v-8.19z" fill="#0A3D76"/><path fill-rule="evenodd" clip-rule="evenodd" d="M14.884 15.51a.22.22 0 01-.052-.296 7.847 7.847 0 016.527-3.48c1.602 0 3.243.584 4.55 1.456a.22.22 0 01.047.32l-1.262 1.571a.232.232 0 01-.31.044 5.367 5.367 0 00-3.024-.928c-1.9 0-3.57.984-4.529 2.466a.233.233 0 01-.334.064l-1.613-1.216zm-.376.84a.217.217 0 00-.334.088c-.384.948-.554 2.005-.554 3.136 0 1 .118 1.938.413 2.79.05.143.226.188.343.091l1.675-1.377a.23.23 0 00.076-.232 5.38 5.38 0 01.126-2.982.23.23 0 00-.078-.257l-1.667-1.257zm.186 7.005a.22.22 0 00-.05.284 7.85 7.85 0 006.716 3.775c1.833 0 3.52-.627 4.856-1.679a.218.218 0 00-.007-.346l-1.697-1.27a.23.23 0 00-.262-.009 5.366 5.366 0 01-2.89.84 5.385 5.385 0 01-4.82-2.979.085.085 0 00-.13-.028l-1.716 1.412zm12.238 1.455a.22.22 0 00.296-.027 7.826 7.826 0 001.63-2.875.23.23 0 01.28-.155l.432.121a.22.22 0 01.152.276 8.736 8.736 0 01-2.38 3.799 8.728 8.728 0 01-5.982 2.36 8.75 8.75 0 01-7.834-4.84c-.597-1.195-.804-2.525-.804-3.895 0-1.566.303-3.064 1.059-4.369a8.749 8.749 0 017.579-4.368c2.15 0 4.32.927 5.848 2.207a.22.22 0 01.021.314l-.006.007-2.245 2.796-.148.183a.225.225 0 01-.323.028l-.177-.156a4.473 4.473 0 00-2.97-1.123 4.486 4.486 0 00-4.096 2.648 4.457 4.457 0 00-.391 1.833 4.469 4.469 0 00.47 1.997 4.488 4.488 0 004.017 2.483 4.47 4.47 0 003.067-1.211c.373-.349.722-.859.984-1.395a.214.214 0 00-.198-.306h-4.078a.224.224 0 01-.224-.224v-3.36c0-.124.1-.224.224-.224h8.511c.105 0 .197.073.22.175l.038.176a8.755 8.755 0 01.204 2.019.22.22 0 01-.23.215l-.448-.018a.23.23 0 01-.219-.233v-.094c0-.394-.028-.78-.084-1.158a.22.22 0 00-.22-.186h-6.874c-.124 0-.225.1-.225.224v1.568c0 .123.1.224.225.224h4.447c.148 0 .256.142.215.285l-.08.285c-.235.829-.727 1.766-1.333 2.435a.235.235 0 00.028.345l1.622 1.214z" fill="#0A3D76"/></svg>
